Sites/Hedoes/app/img/dest/advantages/image(2).svg

<svg width="99" height="99" viewBox="0 0 99 99" fill="none" xmlns="http://www.w3.org/2000/svg">
<g clip-path="url(#clip0)">
<path d="M35.6738 67.5656C35.5642 66.7709 36.1124 66.042 36.9071 65.9267C37.6966 65.8173 38.4309 66.3653 38.5406 67.1546C38.7653 68.6728 38.9352 70.2624 39.0449 71.9122C39.1599 73.5619 39.2202 75.2173 39.2202 76.867C39.2202 80.8628 38.9022 84.9297 38.1678 88.8541C37.4607 92.6142 36.4303 95.8371 35.175 98.2268C34.9228 98.6982 34.4296 98.9997 33.8924 98.9997H21.2695C20.672 98.9997 20.1622 98.6433 19.9375 98.1282C18.7042 95.7495 17.6903 92.5649 16.9942 88.8541C16.2598 84.9297 15.9419 80.8626 15.9419 76.867C15.9419 72.8712 16.2598 68.8041 16.9942 64.8797C17.6684 61.2896 18.6385 58.1927 19.817 55.8413V50.4205C19.817 49.1708 20.3267 48.0361 21.1491 47.214C21.9712 46.3918 23.1059 45.8819 24.3555 45.8819H26.1315V21.4256H25.3805C24.5804 21.4256 23.9336 20.7734 23.9336 19.9731C23.9336 19.1728 24.5804 18.5262 25.3805 18.5262H26.1315V16.2788H23.3636C22.5579 16.2788 21.9111 15.632 21.9111 14.8263C21.9111 14.0262 22.5579 13.3794 23.3636 13.3794H26.1315V11.132H23.3636C22.5579 11.132 21.9111 10.4852 21.9111 9.68506C21.9111 8.88474 22.5579 8.23254 23.3636 8.23254H26.1315V5.99073H25.3805C24.5804 5.99073 23.9336 5.33834 23.9336 4.53822C23.9336 3.7379 24.5804 3.08551 25.3805 3.08551H26.1315V1.45239C26.1315 0.652272 26.7783 -0.00012207 27.5785 -0.00012207C28.3788 -0.00012207 29.031 0.652272 29.031 1.45239V3.0857H29.7818C30.5821 3.0857 31.2289 3.73809 31.2289 4.53841C31.2289 5.33853 30.5821 5.99092 29.7818 5.99092H29.031V8.23273H31.7989C32.5992 8.23273 33.2514 8.88493 33.2514 9.68525C33.2514 10.4856 32.5992 11.1322 31.7989 11.1322H29.031V13.3796H31.7989C32.5992 13.3796 33.2514 14.0264 33.2514 14.8265C33.2514 15.6322 32.5992 16.279 31.7989 16.279H29.031V18.5262H29.7818C30.5821 18.5262 31.2289 19.173 31.2289 19.9731C31.2289 20.7734 30.5821 21.4256 29.7818 21.4256H29.031V45.8823H30.8068C32.0565 45.8823 33.1911 46.3922 34.0133 47.2144C34.8354 48.0365 35.3451 49.1712 35.3451 50.4208V55.8417C35.6576 56.461 35.9534 57.1296 36.2274 57.8424C36.5453 58.6591 36.8524 59.5578 37.1374 60.5335C37.3566 61.3008 36.9181 62.1011 36.1509 62.326C35.3834 62.5453 34.5833 62.1067 34.3584 61.3393C34.1119 60.4842 33.8323 59.6675 33.5308 58.8946C33.3609 58.4507 33.1801 58.0286 32.9937 57.6339H22.163C21.2094 59.6839 20.4145 62.3368 19.8389 65.4116C19.5156 67.1489 19.258 69.0236 19.088 70.9914H36.0685C35.9699 69.8129 35.8384 68.6672 35.6738 67.5656ZM60.5089 42.4073C59.9882 43.0156 59.0728 43.0815 58.4645 42.5662C57.8616 42.0455 57.7903 41.1301 58.311 40.5272C59.155 39.5351 60.1253 38.7404 61.1886 38.1924C62.2575 37.6442 63.4031 37.3428 64.5979 37.3428C67.4262 37.3428 69.9476 38.9871 71.7342 41.6454C73.406 44.134 74.4418 47.5377 74.4418 51.2759C74.4418 55.0085 73.406 58.4176 71.7342 60.9061C69.9474 63.5646 67.426 65.2034 64.5979 65.2034C61.7696 65.2034 59.2482 63.5644 57.4614 60.9061C55.7896 58.4176 54.7538 55.0085 54.7538 51.2759C54.7538 49.8617 54.9073 48.4366 55.2142 47.0554C55.3841 46.2772 56.1568 45.7839 56.9352 45.9539C57.7135 46.1292 58.2068 46.8965 58.0368 47.6748C57.7738 48.8587 57.6532 50.0645 57.6532 51.2759C57.6532 54.4331 58.4972 57.2667 59.8619 59.2947C61.1116 61.1527 62.789 62.3037 64.5977 62.3037C66.4064 62.3037 68.0782 61.1527 69.3333 59.2947C70.6982 57.2667 71.5422 54.4329 71.5422 51.2759C71.5422 48.1187 70.6982 45.285 69.3333 43.2569C68.0782 41.3933 66.4064 40.2478 64.5977 40.2478C63.8687 40.2478 63.1672 40.4288 62.5148 40.7629C61.7913 41.1357 61.1116 41.6947 60.5089 42.4073ZM80.1531 85.5163H49.0369V90.9262C49.0369 92.3458 49.6234 93.6394 50.5606 94.582C51.498 95.5194 52.7914 96.1005 54.2166 96.1005H74.979C76.3986 96.1005 77.692 95.5196 78.635 94.582C79.5722 93.6394 80.1533 92.3458 80.1533 90.9262V85.5163H80.1531ZM49.0369 82.6113H80.1531V76.0615C80.1531 75.2611 80.8055 74.6089 81.6056 74.6089C82.4057 74.6089 83.0581 75.2613 83.0581 76.0615V90.9262C83.0581 93.1459 82.1481 95.1687 80.6848 96.632C79.2213 98.0953 77.1987 98.9999 74.979 98.9999H54.2166C51.9912 98.9999 49.9741 98.0953 48.5108 96.632C47.0474 95.1687 46.1375 93.1459 46.1375 90.9262V25.3062C46.1375 23.0864 47.0472 21.0639 48.5108 19.6003C49.9743 18.137 51.9912 17.2325 54.2166 17.2325H54.973V14.0701C54.973 13.2697 55.6252 12.6175 56.4255 12.6175C57.2259 12.6175 57.8725 13.2697 57.8725 14.0701V17.2326H71.3177V4.76309C71.3177 4.2534 71.1095 3.7874 70.7695 3.44748C70.4352 3.11316 69.9692 2.8995 69.4539 2.8995H59.7359C59.2262 2.8995 58.7602 3.11335 58.4204 3.44748C58.0861 3.7874 57.8723 4.2534 57.8723 4.76309V7.49816C57.8723 8.29848 57.2255 8.95068 56.4254 8.95068C55.6252 8.95068 54.9728 8.29848 54.9728 7.49816V4.76309C54.9728 3.45308 55.51 2.26354 56.3704 1.39767C57.2367 0.53703 58.426 -0.00012207 59.7361 -0.00012207H69.4541C70.7697 -0.00012207 71.9591 0.53703 72.8195 1.39748C73.6856 2.26334 74.2227 3.45289 74.2227 4.7629V17.2325H74.9792C77.1989 17.2325 79.2215 18.1368 80.685 19.6003C82.1483 21.0639 83.0583 23.0864 83.0583 25.3062V69.4894C83.0583 70.2897 82.4059 70.9421 81.6058 70.9421C80.8055 70.9421 80.1533 70.2897 80.1533 69.4894V33.6156H49.0369V82.6113ZM49.0369 30.716H80.1531V25.3062C80.1531 23.8865 79.5722 22.593 78.6348 21.6503C77.692 20.7131 76.3984 20.1319 74.9788 20.1319C68.0561 20.1319 61.1389 20.1319 54.2164 20.1319C52.7912 20.1319 51.4978 20.7129 50.5604 21.6503C49.6232 22.5931 49.0367 23.8865 49.0367 25.3062V30.716H49.0369ZM18.9071 73.8908C18.8632 74.8665 18.8413 75.8586 18.8413 76.8672C18.8413 77.8756 18.8632 78.8679 18.9071 79.8434H36.2549C36.2988 78.8679 36.3152 77.8756 36.3152 76.8672C36.3152 75.8532 36.2988 74.8611 36.2549 73.8908H18.9071ZM19.088 82.7428C19.258 84.7106 19.5156 86.585 19.8389 88.3226C20.4145 91.3974 21.2092 94.0503 22.163 96.1003H32.9991C33.9473 94.0503 34.7476 91.3974 35.3231 88.3226C35.6464 86.585 35.8985 84.7104 36.0685 82.7428H19.088ZM56.6446 77.3548C55.8443 77.3548 55.1921 76.7026 55.1921 75.9023C55.1921 75.102 55.8443 74.4554 56.6446 74.4554H72.5508C73.3511 74.4554 73.9977 75.102 73.9977 75.9023C73.9977 76.7026 73.3509 77.3548 72.5508 77.3548H56.6446ZM60.454 71.83C59.6537 71.83 59.0015 71.1832 59.0015 70.3829C59.0015 69.5826 59.6537 68.9304 60.454 68.9304H68.7414C69.5417 68.9304 70.1939 69.5826 70.1939 70.3829C70.1939 71.1832 69.5415 71.83 68.7414 71.83H60.454ZM22.7164 54.7343H32.4453V50.4207C32.4453 49.9711 32.2591 49.5656 31.9631 49.2642C31.6616 48.9681 31.256 48.7817 30.8064 48.7817H24.3552C23.9058 48.7817 23.4947 48.9681 23.1987 49.2642C22.9026 49.5656 22.7162 49.9711 22.7162 50.4207V54.7343H22.7164Z" fill="#343634"/>
</g>
<defs>
<clipPath id="clip0">
<rect width="99" height="99" fill="white" transform="translate(0 -0.00012207)"/>
</clipPath>
</defs>
</svg>

<svg width="99" height="99" fill="none" xmlns="http://www.w3.org/2000/svg"><g clip-path="url(#clip0)"><path d="M35.674 67.566a1.452 1.452 0 011.233-1.64c.79-.109 1.524.44 1.634 1.229.224 1.518.394 3.107.504 4.757a71.32 71.32 0 01.175 4.955c0 3.996-.318 8.063-1.052 11.987-.707 3.76-1.738 6.983-2.993 9.373a1.46 1.46 0 01-1.283.773H21.27a1.449 1.449 0 01-1.331-.872c-1.234-2.379-2.248-5.563-2.944-9.274-.734-3.924-1.052-7.991-1.052-11.987 0-3.996.318-8.063 1.052-11.987.674-3.59 1.645-6.687 2.823-9.039v-5.42c0-1.25.51-2.385 1.332-3.207a4.524 4.524 0 013.206-1.332h1.776V21.426h-.75a1.45 1.45 0 010-2.9h.75V16.28h-2.767a1.448 1.448 0 01-1.453-1.453c0-.8.647-1.447 1.453-1.447h2.767v-2.247h-2.767a1.447 1.447 0 01-1.453-1.447c0-.8.647-1.452 1.453-1.452h2.767V5.99h-.75a1.45 1.45 0 01-1.447-1.453c0-.8.646-1.452 1.447-1.452h.75V1.452a1.45 1.45 0 112.9 0v1.634h.75a1.45 1.45 0 011.448 1.452c0 .8-.647 1.453-1.447 1.453h-.751v2.242H31.8c.8 0 1.452.652 1.452 1.452 0 .8-.652 1.447-1.452 1.447h-2.77v2.248h2.768a1.45 1.45 0 110 2.899H29.03v2.247h.75a1.45 1.45 0 010 2.9h-.75v24.456h1.776c1.25 0 2.384.51 3.206 1.332a4.524 4.524 0 011.332 3.207v5.42c.313.62.608 1.289.882 2.001.318.817.625 1.716.91 2.691a1.45 1.45 0 01-.986 1.793 1.45 1.45 0 01-1.793-.987 28.31 28.31 0 00-.827-2.444 18.16 18.16 0 00-.537-1.261h-10.83c-.954 2.05-1.748 4.703-2.324 7.778a57.831 57.831 0 00-.751 5.58h16.98a53.304 53.304 0 00-.394-3.426zm24.835-25.159a1.455 1.455 0 01-2.044.16 1.448 1.448 0 01-.154-2.04c.844-.992 1.814-1.787 2.878-2.335 1.069-.548 2.214-.85 3.409-.85 2.828 0 5.35 1.645 7.136 4.303 1.672 2.489 2.708 5.893 2.708 9.63 0 3.733-1.036 7.143-2.708 9.631-1.787 2.659-4.308 4.297-7.136 4.297-2.828 0-5.35-1.639-7.137-4.297-1.671-2.488-2.707-5.898-2.707-9.63 0-1.414.153-2.84.46-4.22a1.447 1.447 0 011.721-1.102 1.45 1.45 0 011.102 1.72 16.582 16.582 0 00-.384 3.602c0 3.157.844 5.99 2.209 8.019 1.25 1.858 2.927 3.009 4.736 3.009 1.808 0 3.48-1.151 4.735-3.01 1.365-2.027 2.21-4.861 2.21-8.018 0-3.157-.845-5.991-2.21-8.02-1.255-1.863-2.927-3.008-4.735-3.008-.73 0-1.43.18-2.083.515-.724.373-1.403.932-2.006 1.644zm19.644 43.11H49.037v5.41c0 1.419.586 2.712 1.524 3.655a5.158 5.158 0 003.656 1.519h20.762c1.42 0 2.713-.581 3.656-1.519a5.177 5.177 0 001.518-3.656v-5.41zM49.037 82.61h31.116v-6.55c0-.8.652-1.452 1.453-1.452.8 0 1.452.652 1.452 1.453v14.864a8.06 8.06 0 01-2.373 5.706A8.056 8.056 0 0174.979 99H54.217a8.046 8.046 0 01-5.706-2.368 8.06 8.06 0 01-2.373-5.706v-65.62c0-2.22.91-4.242 2.373-5.706a8.046 8.046 0 015.706-2.367h.756V14.07a1.45 1.45 0 112.9 0v3.163h13.445V4.763c0-.51-.209-.976-.549-1.316a1.86 1.86 0 00-1.315-.547h-9.718c-.51 0-.976.213-1.316.547a1.88 1.88 0 00-.548 1.316v2.735c0 .8-.647 1.453-1.447 1.453s-1.452-.653-1.452-1.453V4.763c0-1.31.537-2.5 1.397-3.365A4.767 4.767 0 0159.736 0h9.718a4.75 4.75 0 013.366 1.397 4.748 4.748 0 011.403 3.366v12.47h.756c2.22 0 4.243.904 5.706 2.367a8.06 8.06 0 012.373 5.706V69.49c0 .8-.652 1.453-1.452 1.453-.8 0-1.453-.652-1.453-1.453V33.616H49.037V82.61zm0-51.895h31.116v-5.41c0-1.42-.58-2.713-1.518-3.656a5.178 5.178 0 00-3.656-1.518H54.216a5.158 5.158 0 00-3.656 1.518 5.183 5.183 0 00-1.523 3.656v5.41zM18.907 73.89a66.222 66.222 0 000 5.952h17.348c.044-.975.06-1.967.06-2.976a65.81 65.81 0 00-.06-2.976H18.907zm.181 8.852c.17 1.968.428 3.842.75 5.58.576 3.074 1.371 5.727 2.325 7.777h10.836c.948-2.05 1.749-4.703 2.324-7.777a57.9 57.9 0 00.745-5.58h-16.98zm37.557-5.388c-.8 0-1.453-.652-1.453-1.453 0-.8.652-1.447 1.453-1.447H72.55a1.45 1.45 0 010 2.9H56.645zm3.809-5.525a1.45 1.45 0 01-1.453-1.447c0-.8.653-1.453 1.453-1.453h8.287c.8 0 1.453.653 1.453 1.453s-.653 1.447-1.453 1.447h-8.287zM22.716 54.734h9.73v-4.313a1.646 1.646 0 00-1.64-1.64h-6.45a1.646 1.646 0 00-1.639 1.639v4.314z" fill="#343634"/></g><defs><clipPath id="clip0"><path fill="#fff" d="M0 0h99v99H0z"/></clipPath></defs></svg>
